X: 1
T: Boys That Wore the Green
T: Tune: John Anderson, My Jo
R: song
Z: 2020 John Chambers <jc:trillian.mit.edu>
M: C
L: 1/8
K: Em
e2 |\
"Em"B2e2 e2f2 | g4 g2(ag) | "D"f3e d2^c2 | "(Bm)"d4 z2d2 |\
"Em"B2e2 e2f2 | g3f g2a2 | "G"b3a g2a2 | "B"b4 z2b2 |
"G"b3a g2b2 | "D"d'4 c'2b2 | "Am"a3g f2g2 | "D"a4 z2ga |\
"Em"b2g2 "D"a2f2 | "C"g2e2 "B7"b3b | "Em"B2e2 "Bm"e3d | "Em"e4 z2 |]

%%sep 1 1 500
%%sep 1 1 500

